dist/img/4.svg

<svg version="1.1" xmlns="http://www.w3.org/2000/svg" xmlns:xlink="http://www.w3.org/1999/xlink" x="0px" y="0px" width="512px" height="512px"><path d="M141.0946655,250.093338c-8.3402557-20.5966949-15.2960663-40.9094086-20.7113495-60.4673462c-80.5510254,16.4491882-136.5695801,55.2922516-49.9401398,100.4897614c15.7659988,8.9594727,2.9488754,31.0982056-12.1250572,23.5119629c-103.2664795-52.178772-59.8827629-129.3053741,55.763752-149.6371002C85.4884872,39.0289917,143.3580017-18.0654716,231.0704041,54.610405c13.4442444,14.075943-4.9092712,29.8535309-16.9010162,20.3515549c-66.6871643-55.7516747-95.0786819-20.0594711-74.0429535,84.3638153c19.9820709-2.9840698,41.3432922-4.8967438,63.5007935-5.6612701C257.7471313,81.3989868,321.4901123,35.2841606,365.7938843,33.6037254c40.2303162-1.5259285,64.43396,34.318058,50.8063354,106.6517792c-5.079071,17.741806-27.5551758,11.9290161-25.9590454-5.0960388c9.2087097-44.0938034,1.2052307-77.6320114-24.9344177-75.3560181c-28.4580383,1.0810966-77.3232727,33.2146606-127.9204254,93.6079712c333.3926392,19.311615,308.2039185,150.6805573,208.0735626,180.6780853c-18.3171692,5.3841858-24.9010925-18.3177185-9.5738831-24.6610107c139.1556396-54.3576813-47.2409668-133.9928284-219.3361969-129.6277466c-15.7588654,20.6724243-31.2424927,45.1416931-46.5654755,71.8269653c136.3941956,284.4669495,289.8120422,282.9846497,159.1757812-16.4636078c-5.7251892-16.6990814,15.2268677-26.3552551,23.8417664-11.4636383c62.3825378,123.6983032,66.3675537,234.7457275,19.5806274,260.2608032c-37.5480957,20.4767151-123.2724457-10.1231384-218.2099152-202.4988708c-51.9749146,108.9171143-62.8254471,221.0392761,46.6791992,146.2023315c19.0224762-9.6421814,27.1917877,14.114624,15.3612976,21.5375671C95.5639954,536.0866699,45.9615707,424.4812012,141.0946655,250.093338z M183.3656464,181.1817017c-12.955719,0.9047546-25.2474213,2.2124939-36.8116302,3.8694305c3.2530365,11.5042419,7.0722046,23.2968292,11.422226,35.2710724C166.0347748,206.9040375,174.4618378,193.8240814,183.3656464,181.1817017z M286.243988,259.5520935c0-22.1858673-24.1617126-36.1273193-43.3866882-25.0343781c-19.2249756,11.092926-19.2249756,38.9758148,0.0000153,50.0687408S286.243988,281.7379456,286.243988,259.5520935z"/></svg>

<svg xmlns="http://www.w3.org/2000/svg" width="512" height="512"><path d="M141.095 250.093c-8.34-20.596-15.296-40.91-20.712-60.467-80.55 16.45-136.57 55.292-49.94 100.49 15.766 8.96 2.95 31.098-12.125 23.512-103.266-52.18-59.883-129.306 55.764-149.637C85.488 39.029 143.358-18.065 231.07 54.61c13.445 14.075-4.909 29.853-16.9 20.351-66.688-55.752-95.08-20.06-74.044 84.364 19.983-2.984 41.344-4.897 63.501-5.661 54.12-72.266 117.863-118.38 162.167-120.061 40.23-1.526 64.434 34.318 50.806 106.652-5.079 17.741-27.555 11.929-25.959-5.097 9.209-44.093 1.205-77.632-24.934-75.356-28.458 1.082-77.324 33.215-127.92 93.608C571.178 172.723 545.99 304.092 445.86 334.09c-18.317 5.384-24.901-18.318-9.574-24.662 139.156-54.357-47.241-133.992-219.336-129.627-15.76 20.672-31.243 45.141-46.566 71.827C306.78 536.095 460.196 534.612 329.56 235.164c-5.725-16.699 15.227-26.355 23.842-11.464 62.382 123.699 66.367 234.746 19.58 260.261-37.548 20.477-123.272-10.123-218.21-202.499-51.974 108.918-62.825 221.04 46.68 146.203 19.022-9.642 27.192 14.114 15.361 21.537-121.249 86.885-170.851-24.72-75.718-199.109zm42.27-68.911c-12.955.904-25.247 2.212-36.811 3.87 3.253 11.503 7.072 23.296 11.422 35.27 8.059-13.418 16.486-26.498 25.39-39.14zm102.879 78.37c0-22.186-24.162-36.127-43.387-25.034-19.225 11.093-19.225 38.976 0 50.068s43.387-2.848 43.387-25.034z"/></svg>
